src/svg/sign-out.svg

<svg height="16" width="16" xmlns="http://www.w3.org/2000/svg" viewBox="0 0 16 16">
  <path d="M12 9V7H8V5h4V3l4 3-4 3zM10 12H6V3L2 1h8v3h1V1c0-0.55-0.45-1-1-1H1C0.45 0 0 0.45 0 1v11.38c0 0.39 0.22 0.73 0.55 0.91l5.45 2.72V13h4c0.55 0 1-0.45 1-1V8h-1v4z" />
</svg>

<?xml version="1.0" encoding="UTF-8" standalone="no"?>
<svg width="16px" height="16px" viewBox="0 0 16 16" version="1.1" xmlns="http://www.w3.org/2000/svg" xmlns:xlink="http://www.w3.org/1999/xlink">
    <!-- Generator: Sketch 3.7.1 (28215) - http://www.bohemiancoding.com/sketch -->
    <title>sign-out</title>
    <desc>Created with Sketch.</desc>
    <defs></defs>
    <g id="Octicons" stroke="none" stroke-width="1" fill="none" fill-rule="evenodd">
        <g id="sign-out" fill="#000000">
            <path d="M12,9 L12,7 L8,7 L8,5 L12,5 L12,3 L16,6 L12,9 L12,9 Z M10,12 L6,12 L6,3 L2,1 L10,1 L10,4 L11,4 L11,1 C11,0.45 10.55,0 10,0 L1,0 C0.45,0 0,0.45 0,1 L0,12.38 C0,12.77 0.22,13.11 0.55,13.29 L6,16.01 L6,13 L10,13 C10.55,13 11,12.55 11,12 L11,8 L10,8 L10,12 L10,12 Z" id="Shape"></path>
        </g>
    </g>
</svg>
